images_sukapura_svg/cmd/lc_sortascending.svg

<svg viewBox="0 0 24 24" xmlns="http://www.w3.org/2000/svg" xmlns:xlink="http://www.w3.org/1999/xlink"><linearGradient id="a" gradientUnits="userSpaceOnUse" x1="6.468759" x2="6.468759" y1="12.031455" y2="3.136892"><stop offset="0" stop-color="#0040dd"/><stop offset="1" stop-color="#0a84ff"/></linearGradient><text style="font-size:17.434738;font-family:sans-serif;letter-spacing:0;word-spacing:0;stroke-width:.435868;fill:url(#a)" x="1.749034" y="11.878452"><tspan fill="url(#a)" font-family="roboto" font-weight="500" stroke-width=".435868" x="1.749034" y="11.878452">a</tspan></text><path d="m17 4v11h-2.496094a.49150121.49150121 0 0 0 -.347656.839844l3.996094 4a.49150121.49150121 0 0 0 .695312 0l3.996094-4a.49150121.49150121 0 0 0 -.347656-.839844h-2.496094v-11z" fill="#69696e"/><path d="m8.7227227 15.06959q0 .16036-.05908.31228-.05064.143479-.1350397.261639l-3.9077122 5.899548h3.9752321v1.156278h-5.6885487v-.616119q0-.109719.05064-.253199.05908-.14348.1519197-.27852l3.9161522-5.950188h-3.8908323v-1.156278h5.5872689z" fill="#808080" transform="scale(1.0317879 .96919142)"/><text style="font-size:15.107571;font-family:sans-serif;letter-spacing:0;word-spacing:0;fill:#69696e;stroke-width:.377689" x="2.327731" y="21.988432"><tspan fill="#69696e" font-family="roboto" font-weight="500" stroke-width=".377689" x="2.327731" y="21.988432">z</tspan></text></svg>

<?xml version="1.0" encoding="UTF-8" standalone="no"?>
<svg
   xmlns:dc="http://purl.org/dc/elements/1.1/"
   xmlns:cc="http://creativecommons.org/ns#"
   xmlns:rdf="http://www.w3.org/1999/02/22-rdf-syntax-ns#"
   xmlns:svg="http://www.w3.org/2000/svg"
   xmlns="http://www.w3.org/2000/svg"
   xmlns:xlink="http://www.w3.org/1999/xlink"
   xmlns:sodipodi="http://sodipodi.sourceforge.net/DTD/sodipodi-0.dtd"
   xmlns:inkscape="http://www.inkscape.org/namespaces/inkscape"
   viewBox="0 0 24 24"
   version="1.1"
   id="svg10"
   sodipodi:docname="lc_sortascending.svg"
   inkscape:export-filename="/home/rizmut/Documents/Rizmut/Github/libreoffice-style-sukapura/images_sukapura/cmd/lc_sortascending.png"
   inkscape:export-xdpi="96"
   inkscape:export-ydpi="96"
   inkscape:version="0.92.3 (2405546, 2018-03-11)">
  <metadata
     id="metadata16">
    <rdf:RDF>
      <cc:Work
         rdf:about="">
        <dc:format>image/svg+xml</dc:format>
        <dc:type
           rdf:resource="http://purl.org/dc/dcmitype/StillImage" />
        <dc:title />
      </cc:Work>
    </rdf:RDF>
  </metadata>
  <defs
     id="defs14">
    <linearGradient
       gradientTransform="translate(-25,9)"
       id="a"
       gradientUnits="userSpaceOnUse"
       x1="14"
       x2="13.79661"
       y1="22"
       y2="2.1355929">
      <stop
         offset="0"
         stop-color="#0040dd"
         id="stop2799" />
      <stop
         offset="1"
         stop-color="#0a84ff"
         id="stop2801" />
    </linearGradient>
    <linearGradient
       inkscape:collect="always"
       xlink:href="#a"
       id="linearGradient871"
       x1="6"
       y1="12"
       x2="6"
       y2="3"
       gradientUnits="userSpaceOnUse"
       gradientTransform="matrix(0.98828473,0,0,0.98828473,0.53905066,0.17203779)" />
  </defs>
  <sodipodi:namedview
     pagecolor="#ffffff"
     bordercolor="#666666"
     borderopacity="1"
     objecttolerance="10"
     gridtolerance="10"
     guidetolerance="10"
     inkscape:pageopacity="0"
     inkscape:pageshadow="2"
     inkscape:window-width="1366"
     inkscape:window-height="685"
     id="namedview12"
     showgrid="true"
     inkscape:zoom="11.313709"
     inkscape:cx="-3.5293554"
     inkscape:cy="14.599245"
     inkscape:window-x="0"
     inkscape:window-y="0"
     inkscape:window-maximized="1"
     inkscape:current-layer="svg10">
    <inkscape:grid
       type="xygrid"
       id="grid823"
       spacingx="0.5"
       spacingy="0.5"
       empspacing="2" />
  </sodipodi:namedview>
  <text
     xml:space="preserve"
     style="font-style:normal;font-weight:normal;font-size:17.43473816px;line-height:1.25;font-family:sans-serif;letter-spacing:0px;word-spacing:0px;fill:url(#linearGradient871);fill-opacity:1;stroke:none;stroke-width:0.43586847"
     x="1.7490339"
     y="11.878452"
     id="text841"><tspan
       sodipodi:role="line"
       id="tspan839"
       x="1.7490339"
       y="11.878452"
       style="font-style:normal;font-variant:normal;font-weight:500;font-stretch:normal;font-family:roboto;-inkscape-font-specification:'roboto Medium';fill:url(#linearGradient871);fill-opacity:1;stroke-width:0.43586847">a</tspan></text>
  <path
     style="fill:#69696e;fill-opacity:1;stroke:none;stroke-width:0.999439;stroke-linecap:round;stroke-linejoin:round"
     d="M 17 4 L 17 15 L 14.503906 15 A 0.49150121 0.49150121 0 0 0 14.15625 15.839844 L 18.152344 19.839844 A 0.49150121 0.49150121 0 0 0 18.847656 19.839844 L 22.84375 15.839844 A 0.49150121 0.49150121 0 0 0 22.496094 15 L 20 15 L 20 4 L 17 4 z "
     id="path2" />
  <path
     d="m8.7227227 15.06959q0 .16036-.05908.31228-.05064.143479-.1350397.261639l-3.9077122 5.899548h3.9752321v1.156278h-5.6885487v-.616119q0-.109719.05064-.253199.05908-.14348.1519197-.27852l3.9161522-5.950188h-3.8908323v-1.156278h5.5872689z"
     fill="#808080"
     transform="scale(1.0317879 .96919142)"
     id="path8" />
  <text
     id="text845"
     y="21.988432"
     x="2.3277307"
     style="font-style:normal;font-weight:normal;font-size:15.10757065px;line-height:1.25;font-family:sans-serif;letter-spacing:0px;word-spacing:0px;fill:#69696e;fill-opacity:1;stroke:none;stroke-width:0.3776893;"
     xml:space="preserve"><tspan
       style="font-style:normal;font-variant:normal;font-weight:500;font-stretch:normal;font-family:roboto;-inkscape-font-specification:'roboto Medium';stroke-width:0.3776893;fill:#69696e;fill-opacity:1;"
       y="21.988432"
       x="2.3277307"
       id="tspan843"
       sodipodi:role="line">z</tspan></text>
</svg>
